icons/evolvere-blue-folders-flat-vivid-dark-fallback/apps/64/gtranslator.svg

<?xml version="1.0" encoding="UTF-8" standalone="no"?>
<!-- Created with Inkscape (http://www.inkscape.org/) -->

<svg
   xmlns:dc="http://purl.org/dc/elements/1.1/"
   xmlns:cc="http://creativecommons.org/ns#"
   xmlns:rdf="http://www.w3.org/1999/02/22-rdf-syntax-ns#"
   xmlns:svg="http://www.w3.org/2000/svg"
   xmlns="http://www.w3.org/2000/svg"
   xmlns:sodipodi="http://sodipodi.sourceforge.net/DTD/sodipodi-0.dtd"
   xmlns:inkscape="http://www.inkscape.org/namespaces/inkscape"
   width="64"
   height="64"
   id="svg13094"
   version="1.1"
   inkscape:version="0.91+devel r"
   sodipodi:docname="gtranslator.svg">
  <sodipodi:namedview
     id="base"
     pagecolor="#ffffff"
     bordercolor="#666666"
     borderopacity="1.0"
     inkscape:pageopacity="0"
     inkscape:pageshadow="2"
     inkscape:zoom="11.313709"
     inkscape:cx="27.071654"
     inkscape:cy="32.838569"
     inkscape:document-units="px"
     inkscape:current-layer="svg13094"
     showgrid="true"
     inkscape:snap-bbox="true"
     inkscape:bbox-paths="true"
     inkscape:bbox-nodes="true"
     inkscape:snap-bbox-edge-midpoints="true"
     inkscape:snap-bbox-midpoints="true"
     inkscape:object-paths="true"
     inkscape:snap-intersection-paths="true"
     inkscape:object-nodes="true"
     inkscape:snap-smooth-nodes="true"
     inkscape:snap-midpoints="true"
     inkscape:snap-object-midpoints="true"
     inkscape:snap-center="true"
     showguides="false"
     inkscape:guide-bbox="true"
     inkscape:window-width="1920"
     inkscape:window-height="1023"
     inkscape:window-x="-10"
     inkscape:window-y="35"
     inkscape:window-maximized="1"
     inkscape:snap-global="true"
     fit-margin-top="0"
     fit-margin-left="0"
     fit-margin-right="0"
     fit-margin-bottom="0"
     showborder="true"
     inkscape:showpageshadow="false"
     inkscape:snap-page="true">
    <inkscape:grid
       type="xygrid"
       id="grid3075"
       empspacing="5"
       visible="true"
       enabled="true"
       snapvisiblegridlinesonly="true"
       originx="1.6362304e-08px"
       originy="18px" />
    <sodipodi:guide
       orientation="0,1"
       position="-11,30"
       id="guide9148" />
    <sodipodi:guide
       orientation="1,0"
       position="32,70"
       id="guide9150" />
  </sodipodi:namedview>
  <defs
     id="defs13096" />
  <metadata
     id="metadata13099">
    <rdf:RDF>
      <cc:Work
         rdf:about="">
        <dc:format>image/svg+xml</dc:format>
        <dc:type
           rdf:resource="http://purl.org/dc/dcmitype/StillImage" />
        <dc:title></dc:title>
      </cc:Work>
    </rdf:RDF>
  </metadata>
  <path
     id="path6538"
     d="m 0,4 0,30 0,28 2,2 30,0 30,0 2,-2 L 64,34 64,4 32,4 0,4 z"
     style="color:#000000;fill:#369093;fill-opacity:1;fill-rule:nonzero;stroke:none;stroke-width:2.28571415;marker:none;visibility:visible;display:inline;overflow:visible;enable-background:accumulate"
     inkscape:connector-curvature="0" />
  <path
     style="color:#000000;fill:#5dd1ca;fill-opacity:1;fill-rule:nonzero;stroke:none;marker:none;visibility:visible;display:inline;overflow:visible;enable-background:accumulate"
     d="M 2 0 L 0 1 L 0 4 L 19.5625 4 L 39.125 4 L 64 4 L 64 1 L 62 0 L 39.125 0 L 19.5625 0 L 2 0 z "
     id="path6688" />
  <path
     d="M 64,6 62,4 64,3 z"
     id="path3028"
     style="fill:#49b0ae;fill-opacity:1"
     inkscape:connector-curvature="0" />
  <g
     id="g3043"
     inkscape:export-filename="folder.png"
     inkscape:export-xdpi="90"
     inkscape:export-ydpi="90"
     transform="translate(-0.62500009,0.082283)" />
  <g
     id="scalable"
     transform="matrix(1.0385892,0,0,1.0385892,1214.7222,1878.8121)"
     inkscape:label="#g3701"
     style="fill:#ffffff" />
  <path
     style="fill:#7bded8;fill-opacity:1;fill-rule:nonzero"
     d="M 0,3 0,6 2,4 Z"
     id="path4298"
     inkscape:connector-curvature="0"
     sodipodi:nodetypes="cccc" />
  <g
     id="g3063"
     transform="translate(2,1)">
    <path
       style="font-size:medium;font-style:normal;font-variant:normal;font-weight:normal;font-stretch:normal;text-indent:0;text-align:start;text-decoration:none;line-height:normal;letter-spacing:normal;word-spacing:normal;text-transform:none;direction:ltr;block-progression:tb;writing-mode:lr-tb;text-anchor:start;baseline-shift:baseline;color:#000000;fill:#e4f2ec;fill-opacity:1;stroke:none;stroke-width:4;marker:none;visibility:visible;display:inline;overflow:visible;enable-background:accumulate;font-family:Sans;-inkscape-font-specification:Sans"
       d="m 31,14 c -2.181406,0 -4,1.818594 -4,4 l 0,13 c 0,2.181406 1.818594,4 4,4 l 6.34375,0 7.46875,5.59375 a 2.0002,2.0002 0 0 0 3.15625,-1.9375 L 47.375,35 52,35 c 2.181406,0 4,-1.818594 4,-4 l 0,-13 c 0,-2.181406 -1.818594,-4 -4,-4 l -21,0 z m 0,4 21,0 0,13 -7,0 a 2.0002,2.0002 0 0 0 -1.96875,2.34375 l 0.1875,1.09375 -4.03125,-3.03125 A 2.0002,2.0002 0 0 0 38,31 l -7,0 0,-13 z"
       id="path3850"
       inkscape:connector-curvature="0" />
    <path
       id="path3012"
       d="m 31,16 c -1.108,0 -2,0.892 -2,2 l 0,13 c 0,1.108 0.892,2 2,2 l 7,0 8,6 -1,-6 7,0 c 1.108,0 2,-0.892 2,-2 l 0,-13 c 0,-1.108 -0.892,-2 -2,-2 z"
       style="color:#000000;fill:#338077;fill-opacity:1;fill-rule:nonzero;stroke:none;stroke-width:1;marker:none;visibility:visible;display:inline;overflow:visible;enable-background:accumulate"
       inkscape:connector-curvature="0"
       sodipodi:nodetypes="sssscccsssss" />
  </g>
  <g
     id="g3058"
     transform="translate(-0.35937498,-2.390625)">
    <path
       id="path3093"
       d="M 22.5,28 C 13.939586,28 7,33.148725 7,39.5 c 0,5.431007 5.083325,9.982485 11.90625,11.1875 L 18,57 25.03125,50.84375 C 32.386871,49.946771 38,45.211337 38,39.5 38,33.148725 31.060414,28 22.5,28 z"
       style="color:#000000;fill:#e4f2ec;fill-opacity:1;fill-rule:nonzero;stroke:none;stroke-width:1;marker:none;visibility:visible;display:inline;overflow:visible;enable-background:accumulate"
       inkscape:connector-curvature="0" />
  </g>
  <text
     sodipodi:linespacing="125%"
     id="text3072"
     y="43.188694"
     x="17"
     style="font-size:4.68532324px;font-style:normal;font-variant:normal;font-weight:bold;font-stretch:normal;line-height:125%;letter-spacing:0px;word-spacing:0px;color:#000000;fill:#338077;fill-opacity:1;fill-rule:nonzero;stroke:none;stroke-width:2.28571415;marker:none;visibility:visible;display:inline;overflow:visible;enable-background:accumulate;font-family:Oxygen;-inkscape-font-specification:Oxygen Bold;"
     xml:space="preserve"><tspan
       y="43.188694"
       x="17"
       id="tspan3074"
       sodipodi:role="line"
       style="font-size:17.00073624px;color:#000000;fill:#338077;fill-opacity:1;fill-rule:nonzero;stroke:none;stroke-width:2.28571415;marker:none;visibility:visible;display:inline;overflow:visible;enable-background:accumulate;">A</tspan></text>
  <text
     xml:space="preserve"
     style="font-size:12.56441498px;font-style:normal;font-variant:normal;font-weight:bold;font-stretch:normal;line-height:125%;letter-spacing:0px;word-spacing:0px;color:#000000;fill:#e4f2ec;fill-opacity:1;fill-rule:nonzero;stroke:none;stroke-width:2.28571415;marker:none;visibility:visible;display:inline;overflow:visible;enable-background:accumulate;font-family:Oxygen;-inkscape-font-specification:Oxygen Bold;"
     x="38.662579"
     y="30.153442"
     id="text3068"
     sodipodi:linespacing="125%"><tspan
       sodipodi:role="line"
       id="tspan3070"
       x="38.662579"
       y="30.153442">Ω</tspan></text>
</svg>

<svg xmlns="http://www.w3.org/2000/svg" viewBox="0 0 64 64"><g color="#000"><path d="m0 4v30 28l2 2h30 30l2-2v-28-30h-32-32" fill="#369093"/><path d="m2 0l-2 1v3h19.563 19.563 24.875v-3l-2-1h-22.875-19.563-17.563" fill="#5dd1ca"/></g><path d="m64 6l-2-2 2-1z" fill="#49b0ae"/><path d="m0 3v3l2-2" fill="#7bded8"/><g transform="translate(2 1)" color="#000"><path d="m31 14c-2.181 0-4 1.819-4 4v13c0 2.181 1.819 4 4 4h6.344l7.469 5.594a2.0002 2.0002 0 0 0 3.15625 -1.9375l-.594-3.656h4.625c2.181 0 4-1.819 4-4v-13c0-2.181-1.819-4-4-4h-21m0 4h21v13h-7a2.0002 2.0002 0 0 0 -1.96875 2.34375l.188 1.094-4.03-3.03a2.0002 2.0002 0 0 0 -1.1875 -.40625h-7v-13" fill="#e4f2ec"/><path d="m31 16c-1.108 0-2 .892-2 2v13c0 1.108.892 2 2 2h7l8 6-1-6h7c1.108 0 2-.892 2-2v-13c0-1.108-.892-2-2-2z" fill="#338077"/></g><g color="#000"><path d="m22.5 28c-8.56 0-15.5 5.149-15.5 11.5 0 5.431 5.083 9.982 11.906 11.188l-.906 6.313 7.03-6.156c7.356-.897 12.969-5.632 12.969-11.344 0-6.351-6.94-11.5-15.5-11.5" fill="#e4f2ec" transform="translate(-.359-2.391)"/><g font-family="Oxygen" word-spacing="0" line-height="125%" font-weight="bold" letter-spacing="0"><text y="43.19" x="17" fill="#338077" font-size="4.685"><tspan y="43.19" x="17" color="#000" font-size="17">A</tspan></text><text x="38.663" y="30.15" fill="#e4f2ec" font-size="12.564"><tspan x="38.663" y="30.15">Ω</tspan></text></g></g></svg>
